X: 1
T: The Geese In The Bog
R: jig
M: 6/8
L: 1/8
K: Amin
cEE GEE|CEE GEE|cEE GED| EAA A2B|
cEE GEE|CEE GEE|cBA GED| EAA A2B:|
cee gee| aee gee|cee gee| gaa a2e|
cee gee| aee ged| cBA GED| EAA A2B:|


Tune 43	Setting 12462

